X:315
T:Sailor's Jacket, The  
S:J.O'Neill
B:ONMI.1368
F:file ID: onmi.reels/315sjack
Z:Brennan/Black
N:Source m.15 = |(3agf (3gfe fded|
Q:180
R:reel
M:C|
L:1/8
K:D
dfec A2AB|cdef gfge|dfec A2AB|cBcG EDD2:|
d2fd adfd|c2ec gcec|d2fd adfd|eaag edd2|
defg afge|cdef g2fg|afge fded|eaag edd2|]

